ametion_vv-test/img/icons/chat.svg

<svg width="14" height="13" viewBox="0 0 14 13" fill="none" xmlns="http://www.w3.org/2000/svg">
<path fill-rule="evenodd" clip-rule="evenodd" d="M14 6.09459C14 9.46054 10.8658 12.1892 7 12.1892C6.3067 12.1901 5.61626 12.1005 4.94637 11.9228C4.43537 12.1805 3.262 12.675 1.288 12.9971C1.113 13.025 0.98 12.8439 1.04912 12.682C1.35888 11.9541 1.63888 10.9842 1.72287 10.0996C0.651 9.0287 0 7.62694 0 6.09459C0 2.72863 3.13425 0 7 0C10.8658 0 14 2.72863 14 6.09459ZM4.375 6.09459C4.375 6.3255 4.28281 6.54695 4.11872 6.71023C3.95462 6.87351 3.73206 6.96524 3.5 6.96524C3.26794 6.96524 3.04538 6.87351 2.88128 6.71023C2.71719 6.54695 2.625 6.3255 2.625 6.09459C2.625 5.86367 2.71719 5.64222 2.88128 5.47894C3.04538 5.31566 3.26794 5.22393 3.5 5.22393C3.73206 5.22393 3.95462 5.31566 4.11872 5.47894C4.28281 5.64222 4.375 5.86367 4.375 6.09459ZM7.875 6.09459C7.875 6.3255 7.78281 6.54695 7.61872 6.71023C7.45462 6.87351 7.23206 6.96524 7 6.96524C6.76794 6.96524 6.54538 6.87351 6.38128 6.71023C6.21719 6.54695 6.125 6.3255 6.125 6.09459C6.125 5.86367 6.21719 5.64222 6.38128 5.47894C6.54538 5.31566 6.76794 5.22393 7 5.22393C7.23206 5.22393 7.45462 5.31566 7.61872 5.47894C7.78281 5.64222 7.875 5.86367 7.875 6.09459ZM10.5 6.96524C10.7321 6.96524 10.9546 6.87351 11.1187 6.71023C11.2828 6.54695 11.375 6.3255 11.375 6.09459C11.375 5.86367 11.2828 5.64222 11.1187 5.47894C10.9546 5.31566 10.7321 5.22393 10.5 5.22393C10.2679 5.22393 10.0454 5.31566 9.88128 5.47894C9.71719 5.64222 9.625 5.86367 9.625 6.09459C9.625 6.3255 9.71719 6.54695 9.88128 6.71023C10.0454 6.87351 10.2679 6.96524 10.5 6.96524Z" fill="#1A1A1A"/>
</svg>

<svg width="14" height="13" fill="none" xmlns="http://www.w3.org/2000/svg"><path fill-rule="evenodd" clip-rule="evenodd" d="M14 6.095c0 3.366-3.134 6.094-7 6.094a7.97 7.97 0 01-2.054-.266c-.51.258-1.684.752-3.658 1.074-.175.028-.308-.153-.239-.315.31-.728.59-1.698.674-2.582C.65 9.029 0 7.627 0 6.095 0 2.729 3.134 0 7 0s7 2.729 7 6.095zm-9.625 0c0 .23-.092.452-.256.615a.877.877 0 01-1.494-.615c0-.231.092-.453.256-.616a.877.877 0 011.494.616zm3.5 0c0 .23-.092.452-.256.615a.877.877 0 01-1.494-.615c0-.231.092-.453.256-.616a.877.877 0 011.494.616zm2.625.87a.877.877 0 00.875-.87.877.877 0 00-1.75 0c0 .23.092.452.256.615a.877.877 0 00.619.255z" fill="#1A1A1A"/></svg>
